X:577
T: Das Leben ein Wrfelspiel (275), S. 586
N: T0465
O: Luxemburg
S: Singendes Volk, Esch-Alzette, 1937 posth.]
N: Merzig, hhh Anton Koob, Liederheft, 1861
R: ???]
M: 4/4
L: 1/16
K: G
G2A2 | B6B2B2B2A2G2 | A4D2D2D4
A2B2 | c6c2e2ddc2d2 | B4B2B2B4
G2B2 | B6B2c2B2A2G2 | F2G2e4z4
e4 | d6d2e2ddc2d2 | B4
B2B2B2A2B2c2 | d4d2c2B4A4 | G4z8

